X:32
T:Park Home Polka
M:4/4
L:1/8
Q:145
C:Taz Tarry
N:Copyright Brian Tarry 16th March 2006
K:D
|:A2FA d2cB|A2FD E2BB|A2FA d2ef|gfed dcBA|
A2FA d2cB|A2FD E2BB|A2FA d2ef|1 gfec d2 d2:|2 gfec d2 A2||
|:G z Bd gfed|A z FA dcBA|G z Bd gfed|eace agfe|
Gz Bd gfed|A z FA dcBA|G zBd gfed|1 edce d2 A2:|2 edce d2 d2||

